X:1
T:Title
%%score { ( 1 3 ) | ( 2 4 ) }
L:1/8
M:12/8
K:F
V:1 treble nm="Grand Piano"
V:3 treble 
V:2 bass 
V:4 bass 
V:1
 z6 z2[Q:1/4=92] C CDE | F2 F A2 F E2 C CEF | [EG]2 [EG] [GB]2 [GB] A2 F FGA | %3
 c2 c c2 c [DFB]2 [DFB] [DFB][DFB][DFB] |[M:4/4] [CFA]2 GF- FE F2 |[M:2/4][K:bass] C,C, D,E, | %6
[M:6/4] z2[K:treble] cccc c2[K:bass] F,A,G,F, | z2[K:treble] cccc c2[K:bass] E,E,F,G, | %8
 z2[K:treble] cccc c2[K:bass] B,B,A,G, | z2[K:treble] cccc c2[K:bass] C,C,D,E, | %10
 z2[K:treble] AAAA A2[K:bass] F,A,G,F, | z2[K:treble] BBBB B2[K:bass] D,G,A,B, | %12
 z2[K:treble] cccB A2 FGFE |[M:4/4] F8 |] %14
V:2
 z6 z2 [F,A,] [F,A,][F,A,][F,A,] | %1
 [F,A,]2 [F,A,C] [F,CF]2 [F,A,C] [C,G,C]2 [C,E,] [C,E,][C,G,C][C,A,C] | %2
 [C,C]2 [C,C] [C,C]2 [C,C] [F,CF]2 [F,A,] [F,A,][F,B,F][F,CF] | %3
 [F,A,F]2 [F,A,F] [F,A,F]2 [F,A,E] B,,2 B,, B,,B,,B,, | %4
[M:4/4] C,2 [C,B,C][C,A,C]- [C,A,C][C,G,C] [F,A,C]2 |[M:2/4] z4 | %6
[M:6/4] z2[K:treble] [A,F][A,F][A,F][A,F] .[A,F]6 | z2 [B,G][B,G][B,G][B,G] .[B,G]6 | %8
 z2 [CE][CE][CE][CE] .[CE]6 | z2 [A,F][A,F][A,F][A,F] .[A,F]6 | z2 [CF][CF][CF][CF] .[CF]6 | %11
 z2 [B,F][B,F][B,F][B,F] .[B,F]6 | z2 [FA][FA][FA][CG] [CF]2[K:bass] [C,A,C][C,B,C][C,A,C][C,G,C] | %13
[M:4/4] [A,C]2 z2 z4 |] %14
V:3
 x12 | x12 | x12 | x12 |[M:4/4] x8 |[M:2/4][K:bass] x4 |[M:6/4] .F,12[K:treble][K:bass] | %7
 .E,12[K:treble][K:bass] | .B,12[K:treble][K:bass] | .F,12[K:treble][K:bass] | %10
 .F,12[K:treble][K:bass] | .D,12[K:treble][K:bass] | C6[K:treble] z6 |[M:4/4] z2 CD DD C2 |] %14
V:4
 x12 | x12 | x12 | x12 |[M:4/4] x8 |[M:2/4] x4 |[M:6/4] x2[K:treble] x10 | x12 | x12 | x12 | x12 | %11
 x12 | x8[K:bass] x4 |[M:4/4] F,2- [F,-A,][F,-B,] [F,-B,][F,-B,] [F,A,]2 |] %14

